icons/svg/seamark/marine_farm_crustaceans_additional.svg

<?xml version="1.0" encoding="UTF-8" standalone="no"?>
<svg
   xmlns:dc="http://purl.org/dc/elements/1.1/"
   xmlns:cc="http://creativecommons.org/ns#"
   xmlns:rdf="http://www.w3.org/1999/02/22-rdf-syntax-ns#"
   xmlns:svg="http://www.w3.org/2000/svg"
   xmlns="http://www.w3.org/2000/svg"
   xmlns:sodipodi="http://sodipodi.sourceforge.net/DTD/sodipodi-0.dtd"
   xmlns:inkscape="http://www.inkscape.org/namespaces/inkscape"
   width="580"
   height="580"
   id="svg2"
   version="1.1"
   inkscape:version="0.48.4 r9939"
   sodipodi:docname="marine_farm_crustaceans_additional.svg">
  <defs
     id="defs13">
    <inkscape:path-effect
       effect="gears"
       id="path-effect3774"
       is_visible="true"
       teeth="6"
       phi="-1.2" />
    <inkscape:path-effect
       effect="bend_path"
       id="path-effect3772"
       is_visible="false"
       bendpath="m 95.790098,316.51174 c 144.429032,-206.42506 223.313032,-11.7428 339.548092,0"
       prop_scale="1.19"
       scale_y_rel="false"
       vertical="false"
       bendpath-nodetypes="cc" />
  </defs>
  <sodipodi:namedview
     pagecolor="#ffffff"
     bordercolor="#666666"
     borderopacity="1"
     objecttolerance="10"
     gridtolerance="10"
     guidetolerance="10"
     inkscape:pageopacity="0"
     inkscape:pageshadow="2"
     inkscape:window-width="1920"
     inkscape:window-height="1004"
     id="namedview11"
     showgrid="false"
     inkscape:zoom="0.5754386"
     inkscape:cx="-171.82132"
     inkscape:cy="485.56922"
     inkscape:window-x="1680"
     inkscape:window-y="0"
     inkscape:window-maximized="1"
     inkscape:current-layer="svg2"
     inkscape:snap-object-midpoints="false"
     inkscape:snap-page="true" />
  <metadata
     id="metadata2975">image/svg+xmlen<rdf:RDF>
  <cc:Work
     rdf:about="">
    <dc:format>image/svg+xml</dc:format>
    <dc:type
       rdf:resource="http://purl.org/dc/dcmitype/StillImage" />
    <dc:title />
  </cc:Work>
</rdf:RDF>
</metadata>
  <path
     style="opacity:0.72727273;color:#000000;fill:#e4e4e4;fill-opacity:1;fill-rule:nonzero;stroke:#a35151;stroke-width:0;stroke-linecap:round;stroke-linejoin:miter;stroke-miterlimit:4;stroke-opacity:1;stroke-dashoffset:0;marker:none;visibility:visible;display:inline;overflow:visible;enable-background:accumulate"
     d="m 248.94531,183.74567 c -1.03353,0.006 -2.0666,0.0939 -3.08608,0.26377 -1.7862,0.29356 -16.64064,2.05252 -29.8322,12.08059 -33.28303,25.28237 -44.14058,62.40808 -29.96408,87.54471 -3.82112,0.98497 -8.15594,1.97835 -7.25364,1.52986 1.47773,-0.73452 -10.43696,8.97254 -9.41653,7.67565 1.02044,-1.29687 -5.58889,12.55542 -5.22261,10.9464 0.35672,-1.56701 0.33274,12.57045 0,11.84319 l -0.10551,0.0263 c -0.22017,-1.06738 0.61856,5.61979 3.66639,11.86957 0.87824,1.80092 1.87899,3.48741 2.98057,5.06436 -0.25396,0.2121 -1.03266,1.00229 -0.92319,0.87043 0.64601,-0.77808 -4.3703,7.27959 -3.95652,6.35682 0.41378,-0.92278 -2.26142,8.17442 -2.11015,7.1745 0.15128,-0.99993 0.0168,8.46851 -0.10551,7.46464 -0.1223,-1.00388 2.28608,8.18797 1.89914,7.25362 -0.3729,-0.90043 3.87608,6.38686 3.64,6.22494 l -0.0263,0.0263 c 0.03,0.0395 0.0754,0.0662 0.10551,0.10551 -0.007,-0.008 0.0625,0.11803 0.0527,0.10551 l 0.0263,-0.0263 c 6.08949,7.91596 14.85545,13.98599 25.53277,16.59103 -4.03639,6.89086 -6.46,14.84334 -6.59421,23.39625 l -0.0527,0 c 8.4e-4,-0.0251 0.0243,0.20129 0.0263,0.18464 -0.002,0.18675 -0.0263,0.36664 -0.0263,0.55392 l 0.15825,0 c 0.31216,0.41205 2.15966,11.45959 1.66175,10.15507 -0.53427,-1.39974 6.9478,10.41647 5.90841,9.33741 -1.0394,-1.07907 10.47878,6.83759 9.10001,6.25131 -1.37878,-0.58629 12.31274,2.21565 10.8145,2.21565 -1.49825,0 12.19327,-2.80194 10.8145,-2.21565 -1.37877,0.58628 10.1394,-7.33038 9.10001,-6.25131 -1.0394,1.07906 6.44267,-10.73715 5.90841,-9.33741 -0.26062,0.68282 0.16636,-2.31915 0.65941,-5.32812 1.21172,-0.61772 4.32365,-1.90874 8.96814,-3.74551 2.5092,2.17876 5.26164,4.57434 8.54608,7.09537 6.95634,5.33949 17.39327,11.23653 30.12235,11.23653 12.72908,0 23.16783,-5.92387 30.12234,-11.2629 3.28331,-2.52061 6.03774,-4.89121 8.5461,-7.069 14.24457,17.78881 23.63511,27.17297 44.42953,23.48762 20.79439,-3.68535 18.66386,-24.56906 18.66386,-24.56906 -1.46681,-11.03516 -2.49297,-17.04283 -6.64697,-24.13481 10.67799,-2.60536 19.44297,-8.67461 25.53277,-16.59103 l 0.0263,0.0263 c -0.0102,0.0124 0.0601,-0.11388 0.0527,-0.10551 0.0301,-0.0394 0.0756,-0.0661 0.1055,-0.10551 l -0.0263,-0.0263 c -0.27608,0.20422 4.17871,-7.60883 3.79826,-6.64696 -0.39395,0.99598 1.91545,-8.76884 1.82,-7.70204 -0.0955,1.0668 -0.63292,-8.96315 -0.42203,-7.91305 0.2109,1.05011 -3.16399,-8.41188 -2.66406,-7.46464 0.4379,0.82969 -3.47262,-4.57451 -4.08841,-5.59189 -0.002,-0.003 0.002,-0.0234 0,-0.0263 1.10159,-1.57695 2.10233,-3.26344 2.98059,-5.06436 3.04781,-6.24978 3.88655,-12.93695 3.66637,-11.86957 l -0.10551,-0.0263 c -0.34215,0.7554 -0.42892,-13.64721 -0.0527,-12.05422 0.38609,1.63498 -6.49351,-12.38168 -5.43363,-11.07827 1.05989,1.30341 -11.28132,-8.30792 -9.75942,-7.59653 1.19017,0.55633 -6.25403,-1.06456 -9.46928,-1.92551 0.53728,-4.76898 0.50776,-9.15628 -0.23739,-13.16204 -0.40869,-2.19697 -0.96612,-4.29821 -2.08377,-6.8316 0.0873,-25.229 -18.4585,-51.24037 -51.59309,-65.44092 -15.24127,-6.52661 -30.10507,-4.63372 -31.91597,-4.48406 -7.11028,0.59308 -13.69928,5.44199 -16.38001,12.05421 -0.93435,0.10845 -1.86078,0.28492 -2.76957,0.52754 -0.54917,-1.21076 -1.09436,-2.41821 -1.7145,-3.61363 -1.81671,-3.4983 -4.7264,-6.41902 -8.21781,-8.24896 -3.49139,-1.82995 -7.54878,-2.56088 -11.4593,-2.06438 -3.59596,-4.92434 -9.62306,-7.97834 -15.7206,-7.96581 z m -5.61826,225.12628 0.0791,0 c -0.0306,0.16344 -0.14578,0.39649 -0.21102,0.65942 0.0329,-0.11698 0.1116,-0.63264 0.13189,-0.65942 z"
     id="path4136"
     inkscape:connector-curvature="0"
     sodipodi:nodetypes="ccccsssccscssssscccccccccccsssssssccsssczcccccccssssccsccssscsccccccscccccccc" />
  <path
     style="color:#000000;fill:#c600d1;fill-opacity:1;fill-rule:nonzero;stroke-width:0.96049488000000005;stroke-linecap:butt;stroke-linejoin:miter;stroke-miterlimit:4;stroke-opacity:1;stroke-dasharray:none;stroke-dashoffset:0;marker:none;visibility:visible;display:inline;overflow:visible;enable-background:accumulate"
     d="m 248.99807,203.15903 c -2.9562,0.48583 -12.54593,1.78374 -21.23335,8.38783 -32.38494,24.60017 -33.33848,56.49415 -19.75625,69.00179 0.75275,7.35894 4.48457,17.0109 15.4832,24.50408 0.35408,5.25225 6.20388,11.60226 14.50726,14.74464 -0.83162,1.54745 -1.69674,3.20137 -2.53218,4.93248 -19.6263,-4.69319 -29.43512,-8.52695 -33.15567,-10.89364 -2.03699,-1.29574 -2.16878,-1.74491 -2.32117,-2.05739 -0.15238,-0.31247 -0.32822,-1.15767 -0.7913,-3.40261 a 8.2353445,8.2353445 0 0 0 -8.22958,-6.67333 8.2353445,8.2353445 0 0 0 -7.88667,10.02319 c 0.29449,1.42766 0.54794,4.0766 2.11015,7.28001 1.5622,3.2034 4.42442,6.27668 8.28232,8.73073 6.72419,4.27731 16.83327,7.8971 35.37133,12.37073 -1.15289,2.92194 -2.34301,5.99054 -3.56086,9.28464 -0.18934,0.51185 -0.35744,1.03119 -0.50117,1.52987 -10.48587,-0.0427 -17.26142,-0.22657 -20.81132,-0.87044 -4.10917,-0.7453 -3.98727,-0.78623 -6.27768,-3.79827 a 8.2353445,8.2353445 0 0 0 -7.14813,-3.34985 8.2353445,8.2353445 0 0 0 -5.96116,13.29392 c 3.72079,4.89307 9.55876,8.82438 16.45915,10.07595 6.7087,1.2168 14.77207,1.13943 27.72205,1.13421 2.4388,3.00085 5.71385,5.87266 9.52204,8.78348 -6.89587,2.54731 -12.7773,5.18187 -17.778,8.6516 -7.70078,5.3432 -12.89827,14.07549 -12.89827,24.0293 a 8.2353445,8.2353445 0 1 0 16.45915,0 c 0,-5.48592 1.11035,-7.22376 5.82928,-10.49799 4.63103,-3.21323 13.20283,-6.5643 25.00524,-10.49797 12.3207,8.69569 20.64458,20.99596 35.05481,20.99596 14.41022,0 22.72644,-12.30027 35.05481,-20.99596 11.80602,3.93365 20.37336,7.28469 25.00524,10.49797 4.71979,3.2743 5.8029,5.01207 5.8029,10.49799 a 8.2427605,8.2427605 0 0 0 16.48552,0 c 0,-9.95381 -5.19629,-18.68615 -12.89827,-24.0293 -5.00146,-3.4697 -10.88247,-6.10429 -17.77798,-8.6516 3.80739,-2.91082 7.08299,-5.78263 9.52203,-8.78348 12.95357,0.005 21.01387,0.0827 27.72206,-1.13421 6.89984,-1.2517 12.73945,-5.18432 16.45914,-10.07595 a 8.2353445,8.2353445 0 0 0 -7.01624,-13.29392 8.2353445,8.2353445 0 0 0 -6.09304,3.34985 c -2.29152,3.01349 -2.17005,3.0531 -6.27769,3.79827 -3.54858,0.64374 -10.32336,0.8277 -20.81133,0.87044 -0.14348,-0.49869 -0.31209,-1.01801 -0.50115,-1.52987 -1.21786,-3.2941 -2.40798,-6.3627 -3.56088,-9.28464 18.53808,-4.47363 28.64715,-8.09342 35.37134,-12.37073 3.85791,-2.45405 6.72012,-5.52733 8.28232,-8.73073 1.5622,-3.20341 1.81566,-5.85235 2.11015,-7.28001 a 8.2353445,8.2353445 0 0 0 -8.15045,-10.02319 8.2353445,8.2353445 0 0 0 -7.99217,6.67333 c -0.46309,2.24494 -0.61254,3.09014 -0.76493,3.40261 -0.15239,0.31248 -0.28418,0.76165 -2.32116,2.05739 -3.7221,2.36766 -13.53944,6.19779 -33.18206,10.89364 -0.83485,-1.72982 -1.67473,-3.38607 -2.50579,-4.93248 8.30336,-3.14238 14.15316,-9.49239 14.50726,-14.74464 20.28161,-13.81753 15.90452,-34.99435 13.55768,-35.5296 -0.59595,0.53852 -1.17466,1.05542 -1.74087,1.55624 4.60958,-16.4303 -6.08719,-41.67288 -38.77395,-55.6815 -10.03788,-4.29842 -19.66856,-3.22761 -22.65769,-2.98058 3.79611,4.76779 21.39781,26.08367 22.65769,34.6064 -10.05435,-0.43642 -30.60155,-16.18537 -38.32553,-22.6577 -3.73025,13.30699 7.49539,41.93747 23.39625,51.77773 3.97235,2.46083 12.56157,7.06382 21.89277,9.3374 2.41821,5.34574 -3.01522,6.7599 2.03102,14.92928 -3.72931,0.14357 -6.89869,1.23482 -9.33741,2.45306 -9.32349,-7.78197 -20.90818,-9.28465 -39.16959,-9.28465 -18.26141,0 -29.8461,1.50268 -39.1696,9.28465 -2.43978,-1.21906 -5.60949,-2.30941 -9.3374,-2.45306 5.40185,-8.74506 2.82105,-10.42478 3.1916,-16.35363 -2.16347,-0.19587 -4.14274,-0.43605 -5.98754,-0.68579 9.43046,-3.53326 17.6064,-9.3864 20.9432,-12.81915 13.04348,-13.4058 17.87643,-39.61656 7.5174,-59.58526 -5.92063,8.14392 -22.0541,28.38269 -31.70495,31.25654 -0.84815,-8.57214 11.05607,-33.51403 13.58407,-39.06408 z m 36.05713,106.9053 c 1.55582,-0.011 3.18199,0 4.90609,0 27.59388,0 32.5525,-0.0159 49.21917,45.05163 0.0988,0.2635 0.15993,0.45175 0.18463,0.50116 -1.32574,3.41732 -11.83371,10.58353 -18.83305,15.35131 l -4.35217,2.98059 c -4.52899,3.12088 -8.42756,6.52468 -11.86959,9.52204 -6.55468,5.69829 -10.4376,8.91537 -14.34899,8.91537 -3.91141,0 -7.80256,-3.21708 -14.349,-8.91537 -3.44203,-3.0056 -7.34883,-6.40116 -11.86957,-9.52204 l -4.3258,-2.98059 c -7.08993,-4.83365 -17.81365,-12.13637 -18.85944,-15.16667 0,0 0.0117,-0.21644 0.18464,-0.6858 15.61728,-42.25082 20.97578,-44.88659 44.31308,-45.05163 z"
     id="path5"
     inkscape:connector-curvature="0" />
</svg>

<svg width="580" height="580" viewBox="0 0 580 580" fill="none" xmlns="http://www.w3.org/2000/svg">
<path opacity="0.727273" d="M248.945 183.746C247.912 183.752 246.879 183.84 245.859 184.01C244.073 184.303 229.219 186.062 216.027 196.09C182.744 221.373 171.886 258.499 186.063 283.635C182.242 284.62 177.907 285.614 178.809 285.165C180.287 284.431 168.372 294.138 169.393 292.841C170.413 291.544 163.804 305.396 164.17 303.787C164.527 302.22 164.503 316.358 164.17 315.63L164.065 315.657C163.844 314.589 164.683 321.276 167.731 327.526C168.609 329.327 169.61 331.014 170.712 332.59C170.458 332.803 169.679 333.593 169.788 333.461C170.434 332.683 165.418 340.741 165.832 339.818C166.246 338.895 163.57 347.992 163.722 346.992C163.873 345.992 163.739 355.461 163.616 354.457C163.494 353.453 165.902 362.645 165.515 361.711C165.142 360.81 169.391 368.097 169.155 367.935L169.129 367.962C169.159 368.001 169.204 368.028 169.235 368.067C169.228 368.059 169.297 368.185 169.287 368.173L169.314 368.146C175.403 376.062 184.169 382.132 194.846 384.737C190.81 391.628 188.386 399.581 188.252 408.134H188.199C188.2 408.109 188.224 408.335 188.226 408.318C188.224 408.505 188.199 408.685 188.199 408.872H188.358C188.67 409.284 190.517 420.332 190.019 419.027C189.485 417.628 196.967 429.444 195.928 428.365C194.888 427.286 206.407 435.202 205.028 434.616C203.649 434.03 217.341 436.832 215.842 436.832C214.344 436.832 228.036 434.03 226.657 434.616C225.278 435.202 236.796 427.286 235.757 428.365C234.717 429.444 242.2 417.628 241.665 419.027C241.405 419.71 241.832 416.708 242.325 413.699C243.536 413.082 246.648 411.791 251.293 409.954C253.802 412.132 256.554 414.528 259.839 417.049C266.795 422.389 277.232 428.286 289.961 428.286C302.69 428.286 313.129 422.362 320.084 417.023C323.367 414.502 326.121 412.132 328.63 409.954C342.874 427.743 352.265 437.127 373.059 433.441C393.854 429.756 391.723 408.872 391.723 408.872C390.256 397.837 389.23 391.829 385.076 384.737C395.754 382.132 404.519 376.063 410.609 368.146L410.635 368.173C410.625 368.185 410.695 368.059 410.688 368.067C410.718 368.028 410.763 368.001 410.793 367.962L410.767 367.935C410.491 368.14 414.946 360.327 414.565 361.288C414.171 362.284 416.481 352.52 416.385 353.586C416.29 354.653 415.752 344.623 415.963 345.673C416.174 346.724 412.799 337.262 413.299 338.209C413.737 339.038 409.827 333.634 409.211 332.617C409.209 332.614 409.213 332.593 409.211 332.591C410.312 331.014 411.313 329.327 412.191 327.526C415.239 321.276 416.078 314.589 415.858 315.657L415.752 315.63C415.41 316.386 415.323 301.983 415.7 303.576C416.086 305.211 409.206 291.194 410.266 292.498C411.326 293.801 398.985 284.19 400.507 284.901C401.697 285.458 394.252 283.837 391.037 282.976C391.575 278.207 391.545 273.82 390.8 269.814C390.391 267.617 389.834 265.516 388.716 262.982C388.803 237.753 370.258 211.742 337.123 197.541C321.882 191.015 307.018 192.908 305.207 193.057C298.097 193.65 291.508 198.499 288.827 205.111C287.893 205.22 286.966 205.396 286.057 205.639C285.508 204.428 284.963 203.221 284.343 202.025C282.526 198.527 279.617 195.606 276.125 193.776C272.634 191.946 268.576 191.215 264.666 191.712C261.07 186.788 255.043 183.734 248.945 183.746L248.945 183.746ZM243.327 408.872H243.406C243.375 409.036 243.26 409.269 243.195 409.532C243.228 409.415 243.307 408.899 243.327 408.872H243.327Z" fill="#E4E4E4"/>
<path d="M248.998 203.159C246.042 203.645 236.452 204.943 227.765 211.547C195.38 236.147 194.426 268.041 208.008 280.549C208.761 287.908 212.493 297.56 223.492 305.053C223.846 310.305 229.696 316.655 237.999 319.798C237.167 321.345 236.302 322.999 235.467 324.73C215.84 320.037 206.032 316.203 202.311 313.836C200.274 312.541 200.142 312.091 199.99 311.779C199.838 311.466 199.662 310.621 199.199 308.376C198.831 306.474 197.805 304.761 196.299 303.541C194.794 302.32 192.907 301.669 190.969 301.703C189.749 301.726 188.548 302.019 187.455 302.562C186.362 303.106 185.404 303.885 184.649 304.844C183.894 305.804 183.362 306.919 183.091 308.109C182.82 309.299 182.817 310.535 183.082 311.726C183.377 313.154 183.63 315.803 185.193 319.006C186.755 322.21 189.617 325.283 193.475 327.737C200.199 332.014 210.308 335.634 228.846 340.108C227.693 343.03 226.503 346.098 225.285 349.392C225.096 349.904 224.928 350.424 224.784 350.922C214.298 350.88 207.523 350.696 203.973 350.052C199.864 349.306 199.986 349.266 197.695 346.253C196.88 345.141 195.798 344.252 194.549 343.666C193.3 343.081 191.924 342.819 190.547 342.904C189.051 342.999 187.609 343.501 186.377 344.356C185.146 345.21 184.17 346.385 183.557 347.753C182.944 349.121 182.715 350.63 182.897 352.118C183.078 353.606 183.662 355.017 184.586 356.198C188.307 361.091 194.145 365.022 201.045 366.273C207.754 367.49 215.817 367.413 228.767 367.408C231.206 370.409 234.481 373.28 238.289 376.191C231.393 378.739 225.512 381.373 220.511 384.843C212.81 390.186 207.613 398.918 207.613 408.872C207.571 409.979 207.754 411.082 208.148 412.117C208.543 413.152 209.143 414.096 209.911 414.894C210.679 415.691 211.601 416.326 212.62 416.759C213.639 417.192 214.735 417.416 215.842 417.416C216.95 417.416 218.046 417.192 219.065 416.759C220.084 416.326 221.005 415.691 221.774 414.894C222.542 414.096 223.141 413.152 223.536 412.117C223.931 411.082 224.113 409.979 224.072 408.872C224.072 403.386 225.182 401.648 229.901 398.374C234.532 395.161 243.104 391.81 254.906 387.876C267.227 396.572 275.551 408.872 289.961 408.872C304.372 408.872 312.688 396.572 325.016 387.876C336.822 391.81 345.389 395.161 350.021 398.374C354.741 401.648 355.824 403.386 355.824 408.872C355.825 411.058 356.694 413.154 358.24 414.699C359.785 416.244 361.881 417.112 364.067 417.112C366.253 417.112 368.349 416.244 369.895 414.699C371.44 413.154 372.309 411.058 372.31 408.872C372.31 398.918 367.113 390.186 359.412 384.843C354.41 381.373 348.529 378.739 341.634 376.191C345.441 373.28 348.717 370.409 351.156 367.408C364.109 367.413 372.169 367.49 378.878 366.273C385.777 365.022 391.617 361.089 395.337 356.198C396.316 354.946 396.913 353.438 397.054 351.856C397.196 350.273 396.876 348.683 396.135 347.278C395.393 345.873 394.261 344.712 392.874 343.936C391.488 343.16 389.906 342.801 388.321 342.904C387.122 342.984 385.956 343.325 384.903 343.904C383.851 344.483 382.937 345.285 382.227 346.253C379.936 349.267 380.057 349.307 375.95 350.052C372.401 350.695 365.626 350.879 355.138 350.922C354.995 350.424 354.826 349.904 354.637 349.392C353.419 346.098 352.229 343.03 351.076 340.108C369.615 335.634 379.724 332.014 386.448 327.737C390.306 325.283 393.168 322.21 394.73 319.006C396.292 315.803 396.546 313.154 396.84 311.726C397.11 310.513 397.102 309.255 396.816 308.045C396.531 306.835 395.975 305.706 395.191 304.742C394.407 303.778 393.415 303.003 392.289 302.477C391.163 301.951 389.932 301.686 388.69 301.703C386.793 301.725 384.961 302.401 383.505 303.616C382.049 304.832 381.057 306.514 380.698 308.376C380.235 310.621 380.085 311.466 379.933 311.779C379.78 312.091 379.649 312.541 377.612 313.836C373.889 316.204 364.072 320.034 344.429 324.73C343.595 323 342.755 321.344 341.924 319.798C350.227 316.655 356.077 310.305 356.431 305.053C376.713 291.235 372.335 270.059 369.989 269.523C369.393 270.062 368.814 270.579 368.248 271.08C372.857 254.649 362.161 229.407 329.474 215.398C319.436 211.1 309.805 212.17 306.816 212.417C310.612 217.185 328.214 238.501 329.474 247.024C319.419 246.587 298.872 230.838 291.148 224.366C287.418 237.673 298.644 266.304 314.545 276.144C318.517 278.605 327.106 283.208 336.437 285.481C338.855 290.827 333.422 292.241 338.468 300.411C334.739 300.554 331.57 301.645 329.131 302.864C319.807 295.082 308.223 293.579 289.961 293.579C271.7 293.579 260.115 295.082 250.792 302.864C248.352 301.645 245.182 300.554 241.454 300.411C246.856 291.665 244.275 289.986 244.646 284.057C242.482 283.861 240.503 283.621 238.658 283.371C248.089 279.838 256.265 273.985 259.602 270.552C272.645 257.146 277.478 230.935 267.119 210.967C261.198 219.111 245.065 239.349 235.414 242.223C234.566 233.651 246.47 208.709 248.998 203.159V203.159ZM285.055 310.064C286.611 310.053 288.237 310.064 289.961 310.064C317.555 310.064 322.514 310.049 339.18 355.116C339.279 355.38 339.34 355.568 339.365 355.617C338.039 359.035 327.531 366.201 320.532 370.969L316.18 373.949C311.651 377.07 307.752 380.474 304.31 383.471C297.756 389.17 293.873 392.387 289.961 392.387C286.05 392.387 282.159 389.17 275.612 383.471C272.17 380.466 268.263 377.07 263.743 373.949L259.417 370.969C252.327 366.135 241.603 358.832 240.557 355.802C240.557 355.802 240.569 355.585 240.742 355.116C256.359 312.865 261.718 310.23 285.055 310.064V310.064Z" fill="#C600D1"/>
</svg>
